app/images/dist/quolity.svg

<svg width="20" height="19" viewBox="0 0 20 19" fill="none" xmlns="http://www.w3.org/2000/svg">
<path d="M18.5697 9.7402C17.2718 8.85145 16.869 7.08684 17.6529 5.72292C18.124 4.90303 17.8788 4.09284 17.4922 3.60802C17.1056 3.12333 16.3702 2.70403 15.4662 2.98083C13.9622 3.44147 12.3313 2.65622 11.7536 1.19297C11.4064 0.313406 10.62 0 10 0C9.38 0 8.59367 0.313406 8.24642 1.19302C7.66873 2.65631 6.03795 3.44147 4.53387 2.98088C3.6297 2.70412 2.89447 3.12333 2.50779 3.60806C2.12122 4.09289 1.87601 4.90298 2.34715 5.72297C3.131 7.08684 2.72825 8.8515 1.43028 9.74025C0.649998 10.2746 0.519451 11.1109 0.657358 11.7154C0.795264 12.3199 1.27583 13.0167 2.21065 13.1595C3.76569 13.3971 4.89415 14.8121 4.77983 16.3811C4.71101 17.3243 5.2835 17.9478 5.84211 18.2168C6.40076 18.4859 7.24517 18.5447 7.93967 17.9029C8.51726 17.3691 9.25878 17.1021 9.99997 17.1021C10.7414 17.1021 11.4825 17.369 12.0602 17.9029C12.7548 18.5448 13.5993 18.4859 14.1579 18.2168C14.7165 17.9478 15.2889 17.3243 15.2202 16.3811C15.1058 14.8122 16.2343 13.3971 17.7893 13.1595C18.7242 13.0167 19.2046 12.3198 19.3426 11.7154C19.4806 11.1108 19.3499 10.2745 18.5697 9.7402ZM10 15.7464C6.59806 15.7464 3.83037 12.9787 3.83037 9.57675C3.83037 6.1748 6.59801 3.40706 10 3.40706C13.402 3.40706 16.1697 6.17475 16.1697 9.5767C16.1696 12.9787 13.402 15.7464 10 15.7464Z" fill="#DC143C"/>
</svg>

<svg width="20" height="19" fill="none" xmlns="http://www.w3.org/2000/svg"><path d="M18.57 9.74a3.05 3.05 0 0 1-.917-4.017c.471-.82.226-1.63-.16-2.115-.387-.485-1.123-.904-2.027-.627a3.051 3.051 0 0 1-3.712-1.788C11.406.313 10.62 0 10 0c-.62 0-1.406.313-1.754 1.193a3.051 3.051 0 0 1-3.712 1.788c-.904-.277-1.64.142-2.026.627-.387.485-.632 1.295-.16 2.115A3.05 3.05 0 0 1 1.43 9.74c-.78.535-.91 1.37-.773 1.975.138.605.619 1.302 1.554 1.444a3.051 3.051 0 0 1 2.569 3.222c-.069.943.503 1.567 1.062 1.836.559.269 1.403.328 2.098-.314a3.026 3.026 0 0 1 2.06-.8c.741 0 1.482.266 2.06.8.695.642 1.54.583 2.098.314.559-.27 1.13-.893 1.062-1.836a3.051 3.051 0 0 1 2.57-3.222c.934-.142 1.415-.84 1.553-1.444.138-.604.007-1.44-.773-1.975ZM10 15.746a6.177 6.177 0 0 1-6.17-6.17A6.177 6.177 0 0 1 10 3.408a6.177 6.177 0 0 1 6.17 6.17 6.177 6.177 0 0 1-6.17 6.17Z" fill="#DC143C"/></svg>
